src/actions/24/snap-nodes-smooth.svg

<svg xmlns="http://www.w3.org/2000/svg" viewBox="0 0 24 24">
  <defs id="defs3051">
    <style type="text/css" id="current-color-scheme">
      .ColorScheme-Text {
        color:#363636;
      }
      .ColorScheme-Highlight {
        color:#3daee9;
      }
      </style>
  </defs>
 <path 
     style="fill:currentColor;fill-opacity:1;stroke:none" 
     d="M 10 5.2949219 A 7 7 0 0 0 5.2988281 10 L 6.3515625 10 A 6 6 0 0 1 10 6.3496094 L 10 5.2949219 z M 14 5.2988281 L 14 6.3515625 A 6 6 0 0 1 17.650391 10 L 18.705078 10 A 7 7 0 0 0 14 5.2988281 z M 5.2949219 14 A 7 7 0 0 0 10 18.701172 L 10 17.648438 A 6 6 0 0 1 6.3496094 14 L 5.2949219 14 z M 17.648438 14 A 6 6 0 0 1 14 17.650391 L 14 18.705078 A 7 7 0 0 0 18.701172 14 L 17.648438 14 z "
     class="ColorScheme-Text"
     />
 <path 
     style="fill:currentColor;fill-opacity:1;stroke:none" 
     d="M 10 3 L 10 7 L 14 7 L 14 3 L 10 3 z M 11 4 L 13 4 L 13 6 L 11 6 L 11 4 z M 3 10 L 3 14 L 7 14 L 7 10 L 3 10 z M 17 10 L 17 14 L 21 14 L 21 10 L 17 10 z M 4 11 L 6 11 L 6 13 L 4 13 L 4 11 z M 18 11 L 20 11 L 20 13 L 18 13 L 18 11 z M 10 17 L 10 21 L 14 21 L 14 17 L 10 17 z M 11 18 L 13 18 L 13 20 L 11 20 L 11 18 z "
     class="ColorScheme-Highlight"
     />
</svg>

<svg xmlns="http://www.w3.org/2000/svg" viewBox="0 0 24 24">
    <path d="M10 5.295A7 7 0 0 0 5.299 10h1.053A6 6 0 0 1 10 6.35V5.295zm4 .004v1.053A6 6 0 0 1 17.65 10h1.055A7 7 0 0 0 14 5.299zM5.295 14A7 7 0 0 0 10 18.701v-1.053A6 6 0 0 1 6.35 14H5.295zm12.353 0A6 6 0 0 1 14 17.65v1.055A7 7 0 0 0 18.701 14h-1.053z" style="fill:currentColor;fill-opacity:1;stroke:none;color:#050505;opacity:.7"/>
    <path d="M10 3v4h4V3h-4zm1 1h2v2h-2V4zm-8 6v4h4v-4H3zm14 0v4h4v-4h-4zM4 11h2v2H4v-2zm14 0h2v2h-2v-2zm-8 6v4h4v-4h-4zm1 1h2v2h-2v-2z" style="fill:currentColor;fill-opacity:1;stroke:none;color:#a0b6cb"/>
</svg>
